src/assets/daws/fl.svg

<svg fill="none" height="172" viewBox="0 0 172 172" width="172" xmlns="http://www.w3.org/2000/svg"><path d="m123.121 2.73462c-.343.06559-.682.19724-.992.40418-11.841 7.8932-19.394 21.025-22.9067 28.3027-5.2756-9.4062-11.4018-15.3166-26.8173-15.3166-28.5977 0-40.155 21.7233-40.155 30.7855 0 2.6499 2.0439 5.722 10.8025 6.5928-6.5683 12.7414-13.49 32.0953-13.49 57.1728 0 40.506 16.0642 58.636 31.9823 58.636 4.4182 0 27.6389-2.013 51.1462-41.729 8.157-13.779 14.087-26.551 17.721-38.0558 1.97 1.1395 3.769 1.8477 5.228 1.8477 7.622 0 12.172-9.3161 12.172-24.9224 0-10.715-8.118-34.2026-32.25-34.2026-4.719 0-8.464.5005-11.264 1.0918 3.376-6.8397 10.371-18.7674 20.818-25.73074 1.236-.82238 1.565-2.49056.74-3.72681-.619-.92719-1.706-1.34631-2.735-1.14954zm-50.716 18.76528c14.4937 0 18.6301 5.2791 24.6232 17.3218.0591.1209.1662.1969.2415.3044.1182.1693.222.3457.3779.4882.129.1155.2826.1817.4304.2677.1398.0833.2561.1981.4147.2572.0215.008.0415.0051.063.0105.0672.0242.1453.0206.2152.0367.223.0591.4435.126.6666.126.0376 0 .0726-.0158.1102-.0158.0645-.0026.1245-.0234.189-.0314.258-.0296.5033-.0921.7403-.1943.048-.0215.098-.0152.147-.0367.048-.0242 5.089-2.4093 14.938-2.4093 20.506 0 26.875 21.1306 26.875 28.8276 0 11.5079-2.795 19.5474-6.797 19.5474-3.238 0-14.727-10.6404-23.426-20.5814-.514-.5859-1.258-.9186-2.026-.9186-.14 0-.281.01-.42.0315-.914.1451-1.69.7464-2.053 1.5957-.072.172-7.528 17.1853-21.715 17.1853-9.0407 0-16.125-9.4439-16.125-21.5 0-5.0014.7862-9.0024 2.404-12.2355.465-.9272.3535-2.0384-.2834-2.8554s-1.6765-1.1915-2.7085-.9711c-.1182.0269-11.8284 2.6245-20.9121 2.6245-7.8932 0-10.2343-1.3766-10.7395-1.7689.2849-5.9797 8.7787-25.1061 34.7695-25.1061zm-6.7345 30.4443c-.7847 2.9106-1.1705 6.1756-1.1705 9.8682 0 15.0688 9.4439 26.875 21.5 26.875 13.2037 0 21.346-10.9191 24.781-16.8074 3.73 4.0931 9.559 10.1563 14.996 14.4348-3.445 11.5133-9.376 24.4532-17.71 38.5332-22.4891 37.993-44.1276 39.089-46.5222 39.089-12.814 0-26.6073-16.666-26.6073-53.261 0-25.5425 7.4696-44.8536 14.0674-56.9366 5.8319-.0672 12.3549-1.0265 16.6656-1.7952zm45.2935 33.2631c-1.046.0579-1.999.726-2.377 1.7741-.5 1.3949.224 2.9356 1.621 3.4382l5.055 1.8161c.301.1075.613.1627.914.1627 1.102 0 2.132-.6802 2.53-1.7794.5-1.3948-.225-2.9355-1.622-3.4381l-5.06-1.8214c-.352-.125-.712-.1715-1.061-.1522zm-4.981 12.5241c-1.047-.042-2.069.5354-2.54 1.5433-.632 1.3433-.053 2.9433 1.291 3.5743l4.86 2.289c.371.175.76.257 1.145.257 1.01 0 1.973-.57 2.43-1.543.632-1.344.058-2.943-1.286-3.575l-4.866-2.2883c-.337-.1586-.685-.2432-1.034-.2572zm-6.0678 12.1516c-1.039-.113-2.0961.393-2.6403 1.365-.7202 1.298-.2561 2.935 1.0393 3.658l4.6978 2.614c.411.229.858.336 1.302.336.946 0 1.86-.494 2.351-1.375.721-1.298.256-2.936-1.039-3.659l-4.698-2.614c-.322-.18-.667-.287-1.0128-.325zm-7.8578 11.69c-.6746.133-1.2987.526-1.7112 1.144-.8278 1.233-.4934 2.902.7401 3.727l4.4669 2.986c.4596.307.9774.452 1.4907.452.8681 0 1.7201-.418 2.2361-1.192.828-1.233.4935-2.902-.7401-3.727l-4.4669-2.986c-.6168-.413-1.3411-.538-2.0156-.404zm-7.8211 10.66c-.6866.044-1.3611.345-1.8529.903-.9782 1.113-.8686 2.814.2467 3.795l4.0313 3.548c.5079.452 1.1426.672 1.7742.672.7471 0 1.4887-.306 2.0208-.913.9783-1.113.8686-2.809-.2467-3.79l-4.0312-3.553c-.5536-.491-1.2555-.705-1.9422-.662zm-9.0965 9.16c-.6813-.094-1.3982.071-1.9894.519-1.1798.898-1.4173 2.582-.5197 3.764l3.2492 4.288c.5294.699 1.3325 1.061 2.1468 1.061.5644 0 1.1382-.178 1.622-.546 1.1798-.898 1.412-2.581.5144-3.764l-3.2492-4.288c-.4488-.59-1.0928-.94-1.7741-1.034zm-11.2592 6.015c-.3455-.046-.7003-.023-1.055.074-1.4298.395-2.269 1.872-1.8739 3.301l1.433 5.181c.3305 1.191 1.4106 1.974 2.5877 1.974.2392 0 .4774-.033.7139-.1 1.4297-.395 2.2689-1.872 1.8739-3.302l-1.433-5.186c-.2963-1.072-1.2099-1.804-2.2466-1.942z" fill="#9ca3af"/></svg>

<svg width="172" height="172" viewBox="0 0 172 172" fill="none" xmlns="http://www.w3.org/2000/svg">
<path d="M123.121 2.73462C122.778 2.80021 122.439 2.93186 122.129 3.1388C110.288 11.032 102.735 24.1638 99.2223 31.4415C93.9467 22.0353 87.8205 16.1249 72.405 16.1249C43.8073 16.1249 32.25 37.8482 32.25 46.9104C32.25 49.5603 34.2939 52.6324 43.0525 53.5032C36.4842 66.2446 29.5625 85.5985 29.5625 110.676C29.5625 151.182 45.6267 169.312 61.5448 169.312C65.963 169.312 89.1837 167.299 112.691 127.583C120.848 113.804 126.778 101.032 130.412 89.5272C132.382 90.6667 134.181 91.3749 135.64 91.3749C143.262 91.3749 147.812 82.0588 147.812 66.4525C147.812 55.7375 139.694 32.2499 115.562 32.2499C110.843 32.2499 107.098 32.7504 104.298 33.3417C107.674 26.502 114.669 14.5743 125.116 7.61096C126.352 6.78858 126.681 5.1204 125.856 3.88415C125.237 2.95696 124.15 2.53784 123.121 2.73461V2.73462ZM72.405 21.4999C86.8987 21.4999 91.0351 26.779 97.0282 38.8217C97.0873 38.9426 97.1944 39.0186 97.2697 39.1261C97.3879 39.2954 97.4917 39.4718 97.6476 39.6143C97.7766 39.7298 97.9302 39.796 98.078 39.882C98.2178 39.9653 98.3341 40.0801 98.4927 40.1392C98.5142 40.1472 98.5342 40.1443 98.5557 40.1497C98.6229 40.1739 98.701 40.1703 98.7709 40.1864C98.9939 40.2455 99.2144 40.3124 99.4375 40.3124C99.4751 40.3124 99.5101 40.2966 99.5477 40.2966C99.6122 40.294 99.6722 40.2732 99.7367 40.2652C99.9947 40.2356 100.24 40.1731 100.477 40.0709C100.525 40.0494 100.575 40.0557 100.624 40.0342C100.672 40.01 105.713 37.6249 115.562 37.6249C136.068 37.6249 142.437 58.7555 142.437 66.4525C142.437 77.9604 139.642 85.9999 135.64 85.9999C132.402 85.9999 120.913 75.3595 112.214 65.4185C111.7 64.8326 110.956 64.4999 110.188 64.4999C110.048 64.4999 109.907 64.5099 109.768 64.5314C108.854 64.6765 108.078 65.2778 107.715 66.1271C107.643 66.2991 100.187 83.3124 86 83.3124C76.9593 83.3124 69.875 73.8685 69.875 61.8124C69.875 56.811 70.6612 52.81 72.279 49.5769C72.744 48.6497 72.6325 47.5385 71.9956 46.7215C71.3587 45.9045 70.3191 45.53 69.2871 45.7504C69.1689 45.7773 57.4587 48.3749 48.375 48.3749C40.4818 48.3749 38.1407 46.9983 37.6355 46.606C37.9204 40.6263 46.4142 21.4999 72.405 21.4999L72.405 21.4999ZM65.6705 51.9442C64.8858 54.8548 64.5 58.1198 64.5 61.8124C64.5 76.8812 73.9439 88.6874 86 88.6874C99.2037 88.6874 107.346 77.7683 110.781 71.88C114.511 75.9731 120.34 82.0363 125.777 86.3148C122.332 97.8281 116.401 110.768 108.067 124.848C85.5779 162.841 63.9394 163.937 61.5448 163.937C48.7308 163.937 34.9375 147.271 34.9375 110.676C34.9375 85.1335 42.4071 65.8224 49.0049 53.7394C54.8368 53.6722 61.3598 52.7129 65.6705 51.9442ZM110.964 85.2073C109.918 85.2652 108.965 85.9333 108.587 86.9814C108.087 88.3763 108.811 89.917 110.208 90.4196L115.263 92.2357C115.564 92.3432 115.876 92.3984 116.177 92.3984C117.279 92.3984 118.309 91.7182 118.707 90.619C119.207 89.2242 118.482 87.6835 117.085 87.1809L112.025 85.3595C111.673 85.2345 111.313 85.188 110.964 85.2073V85.2073ZM105.983 97.7314C104.936 97.6894 103.914 98.2668 103.443 99.2747C102.811 100.618 103.39 102.218 104.734 102.849L109.594 105.138C109.965 105.313 110.354 105.395 110.739 105.395C111.749 105.395 112.712 104.825 113.169 103.852C113.801 102.508 113.227 100.909 111.883 100.277L107.017 97.9887C106.68 97.8301 106.332 97.7455 105.983 97.7315V97.7314ZM99.9152 109.883C98.8762 109.77 97.8191 110.276 97.2749 111.248C96.5547 112.546 97.0188 114.183 98.3142 114.906L103.012 117.52C103.423 117.749 103.87 117.856 104.314 117.856C105.26 117.856 106.174 117.362 106.665 116.481C107.386 115.183 106.921 113.545 105.626 112.822L100.928 110.208C100.606 110.028 100.261 109.921 99.9152 109.883H99.9152ZM92.0574 121.573C91.3828 121.706 90.7587 122.099 90.3462 122.717C89.5184 123.95 89.8528 125.619 91.0863 126.444L95.5532 129.43C96.0128 129.737 96.5306 129.882 97.0439 129.882C97.912 129.882 98.764 129.464 99.28 128.69C100.108 127.457 99.7735 125.788 98.5399 124.963L94.073 121.977C93.4562 121.564 92.7319 121.439 92.0574 121.573V121.573ZM84.2363 132.233C83.5497 132.277 82.8752 132.578 82.3834 133.136C81.4052 134.249 81.5148 135.95 82.6301 136.931L86.6614 140.479C87.1693 140.931 87.804 141.151 88.4356 141.151C89.1827 141.151 89.9243 140.845 90.4564 140.238C91.4347 139.125 91.325 137.429 90.2097 136.448L86.1785 132.895C85.6249 132.404 84.923 132.19 84.2363 132.233V132.233ZM75.1398 141.393C74.4585 141.299 73.7416 141.464 73.1504 141.912C71.9706 142.81 71.7331 144.494 72.6307 145.676L75.8799 149.964C76.4093 150.663 77.2124 151.025 78.0267 151.025C78.5911 151.025 79.1649 150.847 79.6487 150.479C80.8285 149.581 81.0607 147.898 80.1631 146.715L76.9139 142.427C76.4651 141.837 75.8211 141.487 75.1398 141.393ZM63.8806 147.408C63.5351 147.362 63.1803 147.385 62.8256 147.482C61.3958 147.877 60.5566 149.354 60.9517 150.783L62.3847 155.964C62.7152 157.155 63.7953 157.938 64.9724 157.938C65.2116 157.938 65.4498 157.905 65.6863 157.838C67.116 157.443 67.9552 155.966 67.5602 154.536L66.1272 149.35C65.8309 148.278 64.9173 147.546 63.8806 147.408H63.8806Z" fill="#9CA3AF"/>
</svg>
